packages/ffe-icons/icons/filled/lg/network_wifi_2_bar.svg

<svg xmlns="http://www.w3.org/2000/svg" height="40" viewBox="0 -960 960 960" width="40"><path d="M444.283-184.437 68.847-559.616q-7.82-7.821-11.538-17.474-3.718-9.654-3.718-19.295 0-11.256 4.718-21.409 4.718-10.154 14.154-17.974 87.615-70.231 191.294-107.231 103.679-37 216.243-37t216.243 37q103.679 37 191.294 107.231 9.436 7.82 14.154 17.974 4.718 10.153 4.718 21.409 0 9.641-3.718 19.295-3.718 9.653-11.538 17.474l-375.18 375.179q-7.82 7.82-17.076 11.333T480-169.591q-9.641 0-18.897-3.513-9.256-3.513-16.82-11.333ZM286.282-412.026q41.641-31.384 90.282-49.115T480-478.872q54.795 0 103.436 17.731 48.641 17.731 90.282 49.115l183.821-184.077q-82.462-63.205-177.27-98.423Q585.462-729.744 480-729.744t-200.269 35.218q-94.808 35.218-177.269 98.423l183.82 184.077Z"/></svg>

<svg xmlns="http://www.w3.org/2000/svg" viewBox="0 -960 960 960" width="32" height="32"><path d="M444.28-184.44 68.85-559.62q-7.82-7.82-11.54-17.47-3.72-9.65-3.72-19.29 0-11.26 4.72-21.41 4.72-10.16 14.15-17.98Q160.08-706 263.76-743T480-780q112.56 0 216.24 37t191.3 107.23q9.43 7.82 14.15 17.98 4.72 10.15 4.72 21.41 0 9.64-3.72 19.29-3.72 9.65-11.54 17.47L515.97-184.44q-7.82 7.82-17.07 11.34-9.26 3.51-18.9 3.51-9.64 0-18.9-3.51-9.25-3.52-16.82-11.34Zm-158-227.59q41.64-31.38 90.28-49.11 48.65-17.73 103.44-17.73t103.44 17.73q48.64 17.73 90.28 49.11L857.54-596.1q-82.46-63.21-177.27-98.43-94.81-35.21-200.27-35.21-105.46 0-200.27 35.21-94.81 35.22-177.27 98.43l183.82 184.07Z"/></svg>
